assets/img/braze_icons/message-question-circle.svg

<svg fill="none" height="24" viewBox="0 0 24 24" width="24" xmlns="http://www.w3.org/2000/svg"><path clip-rule="evenodd" d="m12.5 2c-5.24666 0-9.49995 4.25329-9.49995 9.5 0 1.06.17399 2.0814.49575 3.036.05659.1679.08991.2673.11156.3406l.00708.0246-.00375.0078c-.0257.053-.0639.1242-.13536.2565l-1.65188 3.0575c-.10238.1894-.2092.3871-.28267.5589-.07302.1708-.1913.4842-.1331.8557.06822.4354.3245.8188.70078 1.0483.32101.1959.6558.2064.84154.2042.18688-.0022.4103-.0253.62447-.0475l5.15496-.5329c.08256-.0085.12572-.0129.15734-.0153l.00407-.0003.01237.0043c.03885.014.09154.0342.18249.0693 1.0609.4087 2.2127.6323 3.4143.6323 5.2468 0 9.5-4.2533 9.5-9.5 0-5.24671-4.2532-9.5-9.5-9.5zm-.5116 6.67211c.2542-.14937.553-.20397.8436-.15414.2905.04984.5541.20091.7439.42644.1899.22553.2938.51098.2934.80578v.00149c0 .21857-.1772.51972-.6789.85422-.2204.1469-.4479.2614-.6243.3398-.0868.0385-.1577.0668-.2045.0847-.0234.0089-.0405.0151-.0504.0186l-.0092.0032.0016-.0005c-.5232.1751-.8059.741-.6313 1.2645.1729.5188.7493.8039 1.2661.6321.0454-.0153.0904-.0319.1351-.0489.0761-.029.1809-.071.3049-.1261.2452-.109.5797-.2755.9214-.5033.6224-.415 1.5693-1.2378 1.5695-2.51788.0009-.76675-.2695-1.50911-.7633-2.09571-.494-.58687-1.1798-.97996-1.9359-1.10965s-1.5337.0124-2.195.40108c-.6614.38869-1.16384.9989-1.41841 1.72255-.18327.52099.09051 1.09191.61151 1.27518.521.18323 1.0919-.0905 1.2752-.61149.0978-.2781.2909-.5126.545-.66197zm.6615 5.32789c-.5523 0-1 .4477-1 1s.4477 1 1 1h.01c.5523 0 1-.4477 1-1s-.4477-1-1-1z" fill="#801ed7" fill-rule="evenodd"/></svg>

<svg width="24" height="24" viewBox="0 0 24 24" fill="none" xmlns="http://www.w3.org/2000/svg">
<path fill-rule="evenodd" clip-rule="evenodd" d="M12.5 2C7.25334 2 3.00005 6.25329 3.00005 11.5C3.00005 12.56 3.17404 13.5814 3.4958 14.536C3.55239 14.7039 3.58571 14.8033 3.60736 14.8766L3.61444 14.9012L3.61069 14.909C3.58499 14.962 3.54679 15.0332 3.47533 15.1655L1.82345 18.223C1.72107 18.4124 1.61425 18.6101 1.54078 18.7819C1.46776 18.9527 1.34948 19.2661 1.40768 19.6376C1.4759 20.073 1.73218 20.4564 2.10846 20.6859C2.42947 20.8818 2.76426 20.8923 2.95 20.8901C3.13688 20.8879 3.3603 20.8648 3.57447 20.8426L8.72943 20.3097C8.81199 20.3012 8.85515 20.2968 8.88677 20.2944L8.89084 20.2941L8.90321 20.2984C8.94206 20.3124 8.99475 20.3326 9.0857 20.3677C10.1466 20.7764 11.2984 21 12.5 21C17.7468 21 22 16.7467 22 11.5C22 6.25329 17.7468 2 12.5 2ZM11.9884 8.67211C12.2426 8.52274 12.5414 8.46814 12.832 8.51797C13.1225 8.56781 13.3861 8.71888 13.5759 8.94441C13.7658 9.16994 13.8697 9.45539 13.8693 9.75019V9.75168C13.8693 9.97025 13.6921 10.2714 13.1904 10.6059C12.97 10.7528 12.7425 10.8673 12.5661 10.9457C12.4793 10.9842 12.4084 11.0125 12.3616 11.0304C12.3382 11.0393 12.3211 11.0455 12.3112 11.049L12.302 11.0522L12.3036 11.0517C11.7804 11.2268 11.4977 11.7927 11.6723 12.3162C11.8452 12.835 12.4216 13.1201 12.9384 12.9483C12.9838 12.933 13.0288 12.9164 13.0735 12.8994C13.1496 12.8704 13.2544 12.8284 13.3784 12.7733C13.6236 12.6643 13.9581 12.4978 14.2998 12.27C14.9222 11.855 15.8691 11.0322 15.8693 9.75212C15.8702 8.98537 15.5998 8.24301 15.106 7.65641C14.612 7.06954 13.9262 6.67645 13.1701 6.54676C12.414 6.41707 11.6364 6.55916 10.9751 6.94784C10.3137 7.33653 9.81126 7.94674 9.55669 8.67039C9.37342 9.19138 9.6472 9.7623 10.1682 9.94557C10.6892 10.1288 11.2601 9.85507 11.4434 9.33408C11.5412 9.05598 11.7343 8.82148 11.9884 8.67211ZM12.6499 14C12.0976 14 11.6499 14.4477 11.6499 15C11.6499 15.5523 12.0976 16 12.6499 16H12.6599C13.2122 16 13.6599 15.5523 13.6599 15C13.6599 14.4477 13.2122 14 12.6599 14H12.6499Z" fill="#801ED7"/>
</svg>
